img/clock-icon.svg

<svg width="42" height="42" viewBox="0 0 42 42" fill="none" xmlns="http://www.w3.org/2000/svg">
<path fill-rule="evenodd" clip-rule="evenodd" d="M5.25 21.4375C5.25 30.3765 12.4967 37.625 21.4375 37.625C30.3765 37.625 37.625 30.3765 37.625 21.4375C37.625 12.4985 30.3765 5.25 21.4375 5.25C12.4967 5.25 5.25 12.4985 5.25 21.4375Z" stroke="#F58020" stroke-width="1.5" stroke-linecap="round" stroke-linejoin="round"/>
<path d="M15.7501 21.23C15.7495 21.3386 15.7716 21.446 15.815 21.5455C15.8584 21.645 15.9221 21.7342 16.0021 21.8075L19.6246 25.3145C19.7932 25.4278 19.9954 25.4801 20.1977 25.4629C20.4001 25.4458 20.5905 25.3601 20.7376 25.22L28.0876 18.08C28.2032 17.9231 28.2564 17.7288 28.237 17.5349C28.2176 17.3409 28.127 17.161 27.9826 17.03C27.8166 16.8802 27.6004 16.7981 27.3768 16.8001C27.1532 16.802 26.9385 16.8878 26.7751 17.0405L20.1286 23.456L17.1151 20.5475C16.9684 20.4517 16.7969 20.4006 16.6216 20.4005C16.3901 20.4 16.1675 20.4905 16.0021 20.6525C15.9211 20.725 15.8566 20.8141 15.8131 20.9138C15.7696 21.0135 15.7481 21.1213 15.7501 21.23Z" fill="#F58020"/>
</svg>

<svg width="42" height="42" fill="none" xmlns="http://www.w3.org/2000/svg"><path clip-rule="evenodd" d="M5.25 21.438c0 8.939 7.247 16.187 16.188 16.187 8.939 0 16.187-7.248 16.187-16.188 0-8.939-7.248-16.187-16.188-16.187-8.94 0-16.187 7.248-16.187 16.188z" stroke="#F58020" stroke-width="1.5" stroke-linecap="round" stroke-linejoin="round"/><path d="M15.75 21.23a.778.778 0 0 0 .252.578l3.623 3.506a.892.892 0 0 0 1.113-.094l7.35-7.14a.787.787 0 0 0-.105-1.05.892.892 0 0 0-1.208.01l-6.646 6.416-3.014-2.909a.904.904 0 0 0-.493-.146.883.883 0 0 0-.62.252.757.757 0 0 0-.252.577z" fill="#F58020"/></svg>
